X:1
T:Triumphal Song
T:Triumphal Song
T:Bertha F. John, 1896
T:Ralph E. Horne, 1897, alt.
T:Public Domain Courtesy of the Cyber Hymnal™
C:Bertha F. John, 1896
Z:Public Domain
Z:Courtesy of the Cyber Hymnal™
%%score ( 1 2 ) ( 3 4 )
L:1/8
Q:1/4=103
M:4/4
K:Bb
V:1 treble 
V:2 treble 
V:3 bass 
V:4 bass 
V:1
 [B,D]>[CE] | [DF]2 [DG]>[DA] [DB]2 [DA]>[DB] | [EA]4 [EG]2 [EA]>[EB] | %3
w: 1.~Rid- ing|on comes the King of the|low- ly, To the|
w: 2.~Rid- ing|on comes the King in His|glo- ry, But the|
 [FA]2 [EG]>[FA] [EG]2 [DF]>[CE] | [B,D]6 [B,D]>[CE] | [DF]2 [DG]>[FA] [FB]2 [FA]>[FB] | %6
w: ci- ty of Da- vid so|fair; His dis-|ci- ples are shout- ing “Ho-|
w: peo- ple still ask, “Who is|this?” Let us|give Him our full- est al-|
 [Fc]4 [FA]2 [FA]>[FB] | [Fc]2 [GB]>[FA] [FA]2 [=EG]2 | [CF]6 F2 | %9
w: san- na!” Wav- ing|palm branch- es in the|air; The|
w: le- giance, Nor be-|tray with a trai- tor’s|kiss. Our|
 [Fc]2 [Fc]>[Fd] [Ae]2 [FA]>[EA] | [DB]4 [Fd]2 F2 | [EG]2 [EG]>[EA] [=EB]2 [Ec]>[Ed] | %12
w: peo- ple are ask- ing in|won- der, “Who|com- eth?” The mul- ti- tude|
w: lives tell the worth of our|mes- sage, Tho’|lips tell the mes- sage we|
 [Fc]6 [B,D]>[CE] | [DF]2 [DG]>[DA] [DB]2 [DA]>[DB] | [Ec]4 [EG]2 [^CB]>[CG] | %15
w: sing, “This is|Je- sus, the Na- za- rene|Teach- er, This is|
w: bring: Love for|Je- sus, the Naz- a- rene|Teach- er, Love for|
 [DF]2 [^C=E]>[D=F] [Fd]2 [_E=c]2 | [DB]6 z2 |] %17
w: Je- sus, the Pro- phet|King.”|
w: Je- sus, the Pro- phet|King.|
V:2
 x2 | x8 | x8 | x8 | x8 | x8 | x8 | x8 | x6 F2 | x8 | x6 F2 | x8 | x8 | x8 | x8 | x8 | x8 |] %17
V:3
 [B,,F,]>[B,,F,] | [B,,B,]2 [B,,F,]>[B,,F,] [B,,F,]2 [B,,B,]>[B,,B,] | [C,F,]4 [C,C]2 [C,C]>[C,C] | %3
 [F,C]2 F,>F, [F,,F,]2 [F,,F,]>[F,,F,] | [B,,F,]6 [B,,F,]>[B,,F,] | %5
 [B,,B,]2 [B,,B,]>[B,,B,] [D,B,]2 [B,,B,]>[B,,B,] | [C,A,]4 [C,C]2 [C,C]>[C,C] | %7
 [C,A,]2 [C,D]>[C,C] [C,C]2 [C,B,]2 | [F,A,]6 [F,A,]2 | [F,A,]2 [F,A,]>[F,B,] [F,C]2 [F,C]>[F,C] | %10
 [B,,B,]4 [B,,B,]2 [D,B,]2 | [E,B,]2 [E,B,]>[E,B,] [C,C]2 [C,G,]>[C,G,] | [F,A,]6 [B,,F,]>[B,,F,] | %13
 [B,,B,]2 [B,,B,]>[B,,B,] [B,,F,]2 [B,,B,]>[B,,B,] | [E,G,]4 [E,B,]2 [=E,B,]>[E,B,] | %15
 [F,B,]2 [F,B,]>[F,B,] [F,A,]2 F,2 | [B,,F,]6 z2 |] %17
V:4
 x2 | x8 | x8 | x2 F,>F, x4 | x8 | x8 | x8 | x8 | x8 | x8 | x8 | x8 | x8 | x8 | x8 | x6 F,2 | x8 |] %17

